Sources/FrostedUI/Resources/Icons.xcassets/fullScreen12.imageset/full-screen-12.svg

<svg width="12" height="12" viewBox="0 0 12 12" fill="none" xmlns="http://www.w3.org/2000/svg" data-fui-icon="true">
  <path
    d="M1.5 7.20605C1.91406 7.20605 2.24975 7.54206 2.25 7.95605V8.25C2.25 9.07843 2.92157 9.75 3.75 9.75H4.2002C4.61432 9.75011 4.9502 10.0859 4.9502 10.5C4.9502 10.9141 4.61432 11.2499 4.2002 11.25H3.75C2.09315 11.25 0.75 9.90685 0.75 8.25V7.95605C0.750252 7.54206 1.08594 7.20605 1.5 7.20605ZM10.5 7.20605C10.9141 7.20605 11.2497 7.54206 11.25 7.95605V8.25C11.25 9.90685 9.90685 11.25 8.25 11.25H7.7998C7.38568 11.2499 7.0498 10.9141 7.0498 10.5C7.0498 10.0859 7.38568 9.75011 7.7998 9.75H8.25C9.07843 9.75 9.75 9.07843 9.75 8.25V7.95605C9.75025 7.54206 10.0859 7.20605 10.5 7.20605ZM4.2002 0.75C4.61432 0.750106 4.9502 1.08585 4.9502 1.5C4.9502 1.91415 4.61432 2.24989 4.2002 2.25H3.75C2.92157 2.25 2.25 2.92157 2.25 3.75V4.04395C2.24975 4.45794 1.91406 4.79395 1.5 4.79395C1.08594 4.79395 0.750252 4.45794 0.75 4.04395V3.75C0.75 2.09315 2.09315 0.75 3.75 0.75H4.2002ZM8.25 0.75C9.90685 0.75 11.25 2.09315 11.25 3.75V4.04395C11.2497 4.45794 10.9141 4.79395 10.5 4.79395C10.0859 4.79395 9.75025 4.45794 9.75 4.04395V3.75C9.75 2.92157 9.07843 2.25 8.25 2.25H7.7998C7.38568 2.24989 7.0498 1.91415 7.0498 1.5C7.0498 1.08585 7.38568 0.750106 7.7998 0.75H8.25Z"
    fill="currentColor"
  />
</svg>

<svg xmlns="http://www.w3.org/2000/svg" width="12" height="12" fill="none" data-fui-icon="true" viewBox="0 0 12 12"><path fill="currentColor" d="M1.5 7.206a.75.75 0 0 1 .75.75v.294a1.5 1.5 0 0 0 1.5 1.5h.45a.75.75 0 0 1 0 1.5h-.45a3 3 0 0 1-3-3v-.294a.75.75 0 0 1 .75-.75m9 0a.75.75 0 0 1 .75.75v.294a3 3 0 0 1-3 3H7.8a.75.75 0 0 1 0-1.5h.45a1.5 1.5 0 0 0 1.5-1.5v-.294a.75.75 0 0 1 .75-.75M4.2.75a.75.75 0 0 1 0 1.5h-.45a1.5 1.5 0 0 0-1.5 1.5v.294a.75.75 0 0 1-1.5 0V3.75a3 3 0 0 1 3-3zm4.05 0a3 3 0 0 1 3 3v.294a.75.75 0 0 1-1.5 0V3.75a1.5 1.5 0 0 0-1.5-1.5H7.8a.75.75 0 0 1 0-1.5z"/></svg>
